img/icons/cluster_warning.svg

<svg height="14" viewBox="0 0 14 14" width="14" xmlns="http://www.w3.org/2000/svg"><g fill="none" fill-rule="evenodd"><path d="m6.98778829 0c.09606937 0 .20094509.00928913.30141764.04190508l.09851558.04091146 4.87747739 2.41794732c.2055579.11366148.3759122.28798669.4707305.50248705l.0406906.11050326 1.2154554 5.41561045c.0264883.23477011-.0134088.46936906-.1199659.67526932l-.0719356.11986809-.8361739 1.07049797-.999-1.635.1687592.03769133c.1416047.03578279.2803798.08057228.4104092.13427974h.0193887c.0390667.02006542.0781333.04013085.1172.04013085.0520889.0267539.0954321.04472294.1416047.05967495l.072828.02088623c.0131187 0 .0261088.00891797.0448865.01486328l.0332469.00520215c.0193886 0 .0193886 0 .0390667.02006543.0390667.02006542.0584553.02006542.097522.02006542.1756554 0 .3316328-.12069204.3900881-.28151493-.0584553-.20125322-.195044-.3623756-.3900881-.40250645-.0193886 0-.0193886 0-.0193886-.02006542 0-.02036491-.0587448-.02036491-.0781334-.02036491-.0520889-.01337695-.1041778-.01783594-.1562668-.01932227l-.0781333-.00074316c-.0387773 0-.077844 0-.1169107-.02006542h-.0193887c-.2240024-.02063915-.4458953-.06101621-.6632655-.12069204-.0628647-.02457768-.1125733-.07580336-.1365887-.14075747l-.0050267-.01433086-.0143619-.00603405-.1562668-.04013085c.0781334-.58369425.0390667-1.18745392-.0781334-1.77084869-.1377251-.58536518-.3684137-1.14300094-.6826541-1.65015665l.1169107-.12069204v-.02036491c0-.06019628.019678-.14075746.0587447-.18088832.175366-.14075746.3510214-.28181441.5460654-.38244102l.1172001-.06049576.2144327-.12069204.0587447-.04013085.0193887-.02006543c.1756554-.14075746.214722-.38244102.0781333-.56362882-.0675238-.08505353-.1668999-.13625804-.2731774-.14075747-.097522 0-.195044.04013086-.2731774.10062662l-.0193887.02006542c-.019678.02006543-.0390666.04013085-.0587447.04013085-.0389702.04033051-.0779404.08066102-.1111659.12090279l-.0693125.0945482-.0536323.046298c-.1559774.16082289-.3119547.32194526-.4876101.4426373-.0390667.02006543-.0781334.04043034-.1169107.04043034-.019678 0-.0587447 0-.0781334-.02036491l-.1562667.12099152-.48761014-.48306764c-.72172086-.58369425-1.61909711-.94577036-2.53615139-1.04639697l-.01938865-.16112238-.01967804-.02006542c-.05845533-.04013086-.07813337-.10062662-.09752202-.16112238 0-.22131865 0-.4426373.03906669-.68402138v-.02006542l.05845533-.3623756v-.12069204c.01967804-.20125322-.13658871-.40250645-.33163275-.40250645-.11691068 0-.23411074.04013085-.31195473.12069204-.07813337.08056119-.11720006.1811878-.11720006.28151493v.10092609c0 .08056119.01967804.16082289.03906669.24138408.01292577.02695356.01723436.05377401.01867055.08055009l.0007181.06050686c.03906669.22131865.03906669.4426373.03906669.68402138-.01292577.0403305-.02598015.08052791-.05056698.11482437l-.0663437.06636343-.01967803.16112237c-.2144327.02006543-.42915478.06019628-.66326552.10032713-.9167649.20125322-1.75568581.70438629-2.39956267 1.40877257l-.11691068-.08056118h-.01967803c-.01938865 0-.03906669.02036491-.07813337.02036491-.03877731 0-.09752203-.02036491-.11691068-.04043034-.1756554-.14075746-.33163276-.30187984-.48761012-.46270273l-.024694-.03440738-.05343937-.04645329-.15626675-.18088831-.05845533-.04013085-.01938865-.02006543c-.07843755-.06268618-.17410877-.09792727-.27317742-.10062661-.11691068 0-.21472209.04013085-.29256608.14075746-.11720005.1811878-.07813337.42257188.07813338.56332934l.01364386.00527979.00574479.01508512.03468307.02972656c.00866005.00594531.01730938.01040429.02377227.01040429l.06428586.0402085.15043622.08048354.11691067.06049576c.19504405.12069204.37069945.24138408.54635484.38214154.02930002.03032276.05860003.08321911.06311712.13316742l-.00466178.06808581.11720006.12099152-.05874472.10062661c-.60319035.97933164-.83912239 2.15329538-.66326552 3.30031331l-.15626674.04013085-.00502669.01412012-.01436196.00594531c-.01938865.06049576-.07813338.10062661-.13629933.14075746-.21708801.06150604-.43922718.10201054-.6635549.12099152h-.01938865c-.03906669 0-.07813337 0-.11691068.02006543l-.23440011.02006543c-.01292577 0-.02585154.00891796-.04469358.01486327l-.03343979.00520215c-.01938866 0-.01938866 0-.03877731.02006543-.10151985.01693801-.19205915.07576799-.25091147.16303547-.05885233.08726749-.08098369.19550797-.06133263.29996674.03348573.15530383.16732235.26616179.31549481.28184148l.07488267-.00032655c.03906668 0 .05845533 0 .09752202-.02006543.01938865 0 .01938865 0 .01938865-.02006542 0-.02006543.03906669-.02006543.07813337-.02006543l.07739384-.02534522.13703886-.05521597c.03906669-.02006542.07813337-.04013085.11720006-.04013085h.01938865c.19533343-.08056119.40976613-.14075746.62448821-.1811878h.01938866c.05845533 0 .11720005.02006543.15626674.06049576.01938865 0 .01938865.02006543.01938865.02006543l.1756554-.02006543c.29227669.92540546.83863153 1.75078325 1.59970845 2.35424345.17536601.1407575.33163276.261749.5266768.3623756l-.07813337.1608229.00510171.0143309.01457633.006034c.0387773.0601963.0387773.1407575.01938865.2012532-.07813338.2012533-.19504405.4025065-.31224411.5833948v.0200654c-.01938865.0404304-.0387773.0604958-.07813337.1006266l-.03958115.0523099-.13578486.2094391-.00574479.0148633c-.00287239.0029727-.00718098.0052022-.01364387.0052022-.0978114.2012532-.01967803.4426373.15597737.5432639.03906668.0203649.09752202.0404303.15626674.0404303.15597736 0 .29227669-.1006266.37041006-.2416836l.00583053-.0148632c.00291526-.0029727.00728816-.0052022.01384751-.0052022l.00574478-.0200654.03303252-.0401309.07813337-.2216181.03906669-.120692c.05845533-.2213187.15626674-.4222724.25349938-.6238251.03906669-.0601963.09752203-.1006267.15626675-.1206921.01938865 0 .01938865 0 .01938865-.0200654l.07813337-.1611224.1935863.0719604-1.228 2.009-.10614726-.0137763c-.17975119-.0359538-.35359852-.1196513-.49792661-.2365593l-.10234221-.093681-3.37405107-4.32248137c-.13352958-.19097791-.19991394-.42216695-.19068632-.65531762l.01467775-.13981979 1.21545541-5.44888495c.05074017-.23209524.18829843-.43172496.37963711-.55668291l.0999981-.05606093 4.87747738-2.4347078c.12785528-.03302803.27184073-.03302803.39969601-.03302803zm.07460061 9.23325194c.02961737.0204847.05425746.0409694.07900155.06398605l-1.15126627 1.88389931c-.09291062-.0229575-.18446292-.048494-.27394435-.0761106l.95612097-1.79091409c.09752202-.12099153.25349939-.16112238.3900881-.08086067zm-1.75568582-.86520918c.15597736 0 .31195473.10062661.33163276.26174898.01938865.06019628.01938865.14075747-.01967803.20125323l-.74110951 1.85140983c-.68294355-.4630022-1.22929839-1.16738845-1.50218642-1.97240135zm1.95044048-1.62979175.37069944.48306764-.13658871.58369425-.5266768.2614495-.52667681-.2614495-.15626674-.58369425.37069944-.48306764zm-3.55014893-1.428838 1.44344171 1.32791191c.13658871.12099152.15626674.32224474.03906668.46300221-.02930001.04514721-.05860002.06788927-.1043813.0849037l-1.92448193.57905225c-.07813337-.84514375.11691068-1.71035293.54635484-2.45487007zm6.49606647 0c.215493.36784635.3735125.76859873.4682214 1.18745393l.0407175.21413306-.73-1.195zm-3.72580435-1.85140988-.11720006 2.01253226c0 .18088831-.15626674.32164577-.33163275.32164577l-.05343937-.00594531-.10282738-.03418554-1.58003041-1.18745392c.49369039-.50914098 1.1155038-.86472578 1.79475249-1.02633155zm.95583159.02006543c.81924288.10062661 1.59970845.48306764 2.18484059 1.08652783l-1.58003041 1.1673885c-.13658871.0802617-.33163276.06019627-.42915478-.08086067-.03857992-.03573316-.06005656-.08719306-.05874473-.14075747z" fill="#858585" fill-rule="nonzero"/><path d="m9.71777778 7 4.27777782 7h-8.5555556zm.50298222 5.3491812h-.99999998v1.0127601h.99999998zm0-3.24095955h-.99999998v2.40122725h.99999998z" fill="#ff806a"/></g></svg>

<?xml version="1.0" encoding="UTF-8"?>
<svg width="14px" height="14px" viewBox="0 0 14 14" version="1.1" xmlns="http://www.w3.org/2000/svg" xmlns:xlink="http://www.w3.org/1999/xlink">
    <title>cluster_warning</title>
    <g id="Icon" stroke="none" stroke-width="1" fill="none" fill-rule="evenodd">
        <g id="Visual-Studio" transform="translate(-155.000000, -230.000000)">
            <g id="cluster_warning" transform="translate(155.000000, 230.000000)">
                <path d="M6.98778829,0 C7.08385766,0 7.18873338,0.00928913246 7.28920593,0.0419050789 L7.38772151,0.0828165442 L12.2651989,2.50076386 C12.4707568,2.61442534 12.6411111,2.78875055 12.7359294,3.00325091 L12.77662,3.11375417 L13.9920754,8.52936462 C14.0185637,8.76413473 13.9786666,8.99873368 13.8721095,9.20463394 L13.8001739,9.32450203 L12.964,10.395 L11.965,8.76 L12.1337592,8.79769133 C12.2753639,8.83347412 12.414139,8.87826361 12.5441684,8.93197107 L12.5635571,8.93197107 C12.6026238,8.95203649 12.6416904,8.97210192 12.6807571,8.97210192 C12.732846,8.99885582 12.7761892,9.01682486 12.8223618,9.03177687 L12.8951898,9.0526631 C12.9083085,9.0526631 12.9212986,9.06158107 12.9400763,9.06752638 L12.9733232,9.07272853 C12.9927118,9.07272853 12.9927118,9.07272853 13.0123899,9.09279396 C13.0514566,9.11285938 13.0708452,9.11285938 13.1099119,9.11285938 C13.2855673,9.11285938 13.4415447,8.99216734 13.5,8.83134445 C13.4415447,8.63009123 13.304956,8.46896885 13.1099119,8.428838 C13.0905233,8.428838 13.0905233,8.428838 13.0905233,8.40877258 C13.0905233,8.38840767 13.0317785,8.38840767 13.0123899,8.38840767 C12.960301,8.37503072 12.9082121,8.37057173 12.8561231,8.3690854 L12.7779898,8.36834224 C12.7392125,8.36834224 12.7001458,8.36834224 12.6610791,8.34827682 L12.6416904,8.34827682 C12.417688,8.32763767 12.1957951,8.28726061 11.9784249,8.22758478 C11.9155602,8.2030071 11.8658516,8.15178142 11.8418362,8.08682731 L11.8368095,8.07249645 L11.8224476,8.0664624 L11.6661808,8.02633155 C11.7443142,7.4426373 11.7052475,6.83887763 11.5880474,6.25548286 C11.4503223,5.67011768 11.2196337,5.11248192 10.9053933,4.60532621 L11.022304,4.48463417 L11.022304,4.46426926 C11.022304,4.40407298 11.041982,4.3235118 11.0810487,4.28338094 C11.2564147,4.14262348 11.4320701,4.00156653 11.6271141,3.90093992 L11.7443142,3.84044416 L11.9587469,3.71975212 L12.0174916,3.67962127 L12.0368803,3.65955584 C12.2125357,3.51879838 12.2516023,3.27711482 12.1150136,3.09592702 C12.0474898,3.01087349 11.9481137,2.95966898 11.8418362,2.95516955 C11.7443142,2.95516955 11.6467922,2.99530041 11.5686588,3.05579617 L11.5492701,3.07586159 C11.5295921,3.09592702 11.5102035,3.11599244 11.4905254,3.11599244 C11.4515552,3.15632295 11.412585,3.19665346 11.3793595,3.23689523 L11.310047,3.33144343 L11.2564147,3.37774143 C11.1004373,3.53856432 10.94446,3.69968669 10.7688046,3.82037873 C10.7297379,3.84044416 10.6906712,3.86080907 10.6518939,3.86080907 C10.6322159,3.86080907 10.5931492,3.86080907 10.5737605,3.84044416 L10.4174938,3.96143568 L9.92988366,3.47836804 C9.2081628,2.89467379 8.31078655,2.53259768 7.39373227,2.43197107 L7.37434362,2.27084869 L7.35466558,2.25078327 C7.29621025,2.21065241 7.27653221,2.15015665 7.25714356,2.08966089 C7.25714356,1.86834224 7.25714356,1.64702359 7.29621025,1.40563951 L7.29621025,1.38557409 L7.35466558,1.02319849 L7.35466558,0.90250645 C7.37434362,0.701253225 7.21807687,0.5 7.02303283,0.5 C6.90612215,0.5 6.78892209,0.540130851 6.7110781,0.620692038 C6.63294473,0.701253225 6.59387804,0.801879838 6.59387804,0.902206966 L6.59387804,1.00313306 C6.59387804,1.08369425 6.61355608,1.16395595 6.63294473,1.24451714 C6.6458705,1.2714707 6.65017909,1.29829115 6.65161528,1.32506723 L6.65233338,1.38557409 C6.69140007,1.60689274 6.69140007,1.82821139 6.69140007,2.06959547 C6.6784743,2.10992597 6.66541992,2.15012338 6.64083309,2.18441984 L6.57448939,2.25078327 L6.55481136,2.41190564 C6.34037866,2.43197107 6.12565658,2.47210192 5.89154584,2.51223277 C4.97478094,2.71348599 4.13586003,3.21661906 3.49198317,3.92100534 L3.37507249,3.84044416 L3.35539446,3.84044416 C3.33600581,3.84044416 3.31632777,3.86080907 3.27726109,3.86080907 C3.23848378,3.86080907 3.17973906,3.84044416 3.16035041,3.82037873 C2.98469501,3.67962127 2.82871765,3.51849889 2.67274029,3.357676 L2.64804629,3.32326862 L2.59460692,3.27681533 L2.43834017,3.09592702 L2.37988484,3.05579617 L2.36049619,3.03573074 C2.28205864,2.97304456 2.18638742,2.93780347 2.08731877,2.93510413 C1.97040809,2.93510413 1.87259668,2.97523498 1.79475269,3.07586159 C1.67755264,3.25704939 1.71661932,3.49843347 1.87288607,3.63919093 L1.88652993,3.64447072 L1.89227472,3.65955584 L1.92695779,3.6892824 C1.93561784,3.69522771 1.94426717,3.69968669 1.95073006,3.69968669 L2.01501592,3.73989519 L2.16545214,3.82037873 L2.28236281,3.88087449 C2.47740686,4.00156653 2.65306226,4.12225857 2.82871765,4.26301603 C2.85801767,4.29333879 2.88731768,4.34623514 2.89183477,4.39618345 L2.88717299,4.46426926 L3.00437305,4.58526078 L2.94562833,4.68588739 C2.34243798,5.66521903 2.10650594,6.83918277 2.28236281,7.9862007 L2.12609607,8.02633155 L2.12106938,8.04045167 L2.10670742,8.04639698 C2.08731877,8.10689274 2.02857404,8.14702359 1.97040809,8.18715444 C1.75332008,8.24866048 1.53118091,8.28916498 1.30685319,8.30814596 L1.28746454,8.30814596 C1.24839785,8.30814596 1.20933117,8.30814596 1.17055386,8.32821139 L0.936153748,8.34827682 C0.92322798,8.34827682 0.910302212,8.35719478 0.891460173,8.36314009 L0.858020376,8.36834224 C0.838631724,8.36834224 0.838631724,8.36834224 0.819243072,8.38840767 C0.717723224,8.40534568 0.627183923,8.46417566 0.568331597,8.55144314 C0.50947927,8.63871063 0.487347905,8.74695111 0.506998966,8.85140988 C0.540484697,9.00671371 0.674321317,9.11757167 0.822493778,9.13325136 L0.897376445,9.13292481 C0.936443131,9.13292481 0.955831782,9.13292481 0.994898469,9.11285938 C1.01428712,9.11285938 1.01428712,9.11285938 1.01428712,9.09279396 C1.01428712,9.07272853 1.05335381,9.07272853 1.09242049,9.07272853 L1.16981433,9.04738331 L1.30685319,8.99216734 C1.34591988,8.97210192 1.38498656,8.95203649 1.42405325,8.95203649 L1.4434419,8.95203649 C1.63877533,8.8714753 1.85320803,8.81127903 2.06793011,8.77084869 L2.08731877,8.77084869 C2.1457741,8.77084869 2.20451882,8.79091412 2.24358551,8.83134445 C2.26297416,8.83134445 2.26297416,8.85140988 2.26297416,8.85140988 L2.43862956,8.83134445 C2.73090625,9.75674991 3.27726109,10.5821277 4.03833801,11.1855879 C4.21370402,11.3263454 4.36997077,11.4473369 4.56501481,11.5479635 L4.48688144,11.7087864 L4.49198315,11.7231173 L4.50655948,11.7291513 C4.54533678,11.7893476 4.54533678,11.8699088 4.52594813,11.9304045 C4.44781475,12.1316578 4.33090408,12.332911 4.21370402,12.5137993 L4.21370402,12.5338647 C4.19431537,12.5742951 4.17492672,12.5943605 4.13557065,12.6344913 L4.0959895,12.6868012 L3.96020464,12.8962403 L3.95445985,12.9111036 C3.95158746,12.9140763 3.94727887,12.9163058 3.94081598,12.9163058 C3.84300458,13.117559 3.92113795,13.3589431 4.09679335,13.4595697 C4.13586003,13.4799346 4.19431537,13.5 4.25306009,13.5 C4.40903745,13.5 4.54533678,13.3993734 4.62347015,13.2583164 L4.62930068,13.2434532 C4.63221594,13.2404805 4.63658884,13.238251 4.64314819,13.238251 L4.64889297,13.2181856 L4.68192549,13.1780547 L4.76005886,12.9564366 L4.79912555,12.8357446 C4.85758088,12.6144259 4.95539229,12.4134722 5.05262493,12.2119195 C5.09169162,12.1517232 5.15014696,12.1112928 5.20889168,12.0912274 C5.22828033,12.0912274 5.22828033,12.0912274 5.22828033,12.071162 L5.3064137,11.9100396 L5.5,11.982 L4.272,13.991 L4.16585274,13.9772237 C3.98610155,13.9412699 3.81225422,13.8575724 3.66792613,13.7406644 L3.56558392,13.6469834 L0.191532849,9.32450203 C0.0580032682,9.13352412 -0.00838109235,8.90233508 0.000846532396,8.66918441 L0.0155242796,8.52936462 L1.23097969,3.08047967 C1.28171986,2.84838443 1.41927812,2.64875471 1.6106168,2.52379676 L1.7106149,2.46773583 L6.58809228,0.0330280265 C6.71594756,0 6.85993301,0 6.98778829,0 Z M7.0623889,9.23325194 C7.09200627,9.25373664 7.11664636,9.27422134 7.14139045,9.29723799 L5.99012418,11.1811373 C5.89721356,11.1581798 5.80566126,11.1326433 5.71617983,11.1050267 L6.6723008,9.31411261 C6.76982282,9.19312108 6.92580019,9.15299023 7.0623889,9.23325194 Z M5.30670308,8.36804276 C5.46268044,8.36804276 5.61865781,8.46866937 5.63833584,8.62979174 C5.65772449,8.68998802 5.65772449,8.77054921 5.61865781,8.83104497 L4.8775483,10.6824548 C4.19460475,10.2194526 3.64824991,9.51506635 3.37536188,8.71005345 L5.30670308,8.36804276 Z M7.25714356,6.73825101 L7.627843,7.22131865 L7.49125429,7.8050129 L6.96457749,8.0664624 L6.43790068,7.8050129 L6.28163394,7.22131865 L6.65233338,6.73825101 L7.25714356,6.73825101 Z M3.70699463,5.30941301 L5.15043634,6.63732492 C5.28702505,6.75831644 5.30670308,6.95956966 5.18950302,7.10032713 C5.16020301,7.14547434 5.130903,7.1682164 5.08512172,7.18523083 L3.16063979,7.76428308 C3.08250642,6.91913933 3.27755047,6.05393015 3.70699463,5.30941301 Z M10.2030611,5.30941301 C10.4185541,5.67725936 10.5765736,6.07801174 10.6712825,6.49686694 L10.712,6.711 L9.982,5.516 L10.2030611,5.30941301 Z M6.47725675,3.45800313 L6.36005669,5.47053539 C6.36005669,5.6514237 6.20378995,5.79218116 6.02842394,5.79218116 L5.97498457,5.78623585 L5.87215719,5.75205031 L4.29212678,4.56459639 C4.78581717,4.05545541 5.40763058,3.69987061 6.08687927,3.53826484 L6.47725675,3.45800313 Z M7.43308834,3.47806856 C8.25233122,3.57869517 9.03279679,3.9611362 9.61792893,4.56459639 L8.03789852,5.73198489 C7.90130981,5.81224659 7.70626576,5.79218116 7.60874374,5.65112422 C7.57016382,5.61539106 7.54868718,5.56393116 7.54999901,5.51036675 L7.43308834,3.47806856 Z" id="形状" fill="#858585" fill-rule="nonzero"></path>
                <path d="M9.71777778,7 L13.9955556,14 L5.44,14 L9.71777778,7 Z M10.22076,12.3491812 L9.22076002,12.3491812 L9.22076002,13.3619413 L10.22076,13.3619413 L10.22076,12.3491812 Z M10.22076,9.10822165 L9.22076002,9.10822165 L9.22076002,11.5094489 L10.22076,11.5094489 L10.22076,9.10822165 Z" id="形状结合" fill="#FF806A"></path>
            </g>
        </g>
    </g>
</svg>
